X:1
T:[ID 2-96]
T:[ID 2-96]
T:Bezeichnung standardisiert: Menuett Men\"uet 4.
T:Urheber unbekannt Datum in der hier transkribierten schriftlichen Quelle: 1767
C:Urheber unbekannt
C:Datum in der hier transkribierten schriftlichen Quelle: 1767
L:1/8
M:3/4
K:F
V:1 treble 
V:1
 F2 F2 F2 | FGAB c2 | d2 bagf | f3 e/g/ f2 | c2 c2 c2 | cdef g2 | (3agf e2 d2 |{d} c6 :: c2 c2 c2 | %9
 cdefga | b2 b2 a2 | ge c4 |"^O)" b2 b2 a2 | gege f2 |"^O)" b2 b2 a2 | gege f2 | (3dcB A2 G2 | %17
{G} F6 :| %18

